layouts/icon-pack/spell_leaf.svg

<?xml version="1.0" encoding="UTF-8"?>
<svg width="1200pt" height="1200pt" version="1.1" viewBox="0 0 1200 1200" xmlns="http://www.w3.org/2000/svg">
 <path d="m866.41 85.664c-16.406-33.492-62.227-38.602-85.031-9.1172-84.492 109.29-263.88 206.02-263.88 206.02-229.88 118.83-266.04 346.12-266.04 346.12-19.43 131.95 25.383 219.75 78.422 275.6 1.0078 1.0547 2.0156 2.1328 3.0469 3.1875 8.7461 9 20.59 14.332 33.125 14.906 12.535 0.57422 24.82-3.6484 34.352-11.812 55.625-47.973 102.86-104.89 139.73-168.42 9.375-16.242 30.469-22.547 46.43-12.797 7.3242 4.4258 12.648 11.516 14.863 19.781 2.2148 8.2656 1.1484 17.066-2.9805 24.562-12.328 22.406-32.18 57.047-56.367 94.477 0 0-86.531 119.79-157.73 198.02-17.508 19.242-16.547 49.547 3.4453 66.164 8.6289 7.1758 19.621 10.875 30.832 10.383 11.211-0.49219 21.836-5.1484 29.801-13.055 37.824-37.523 73.43-77.215 106.64-118.88 3.5273-4.4922 8.9102-7.1328 14.625-7.1719 137.77-0.75 227.84-74.461 283.59-148.31 48.539-64.359 78.516-140.62 89.438-220.57 35.742-261.87-28.008-450.21-76.312-549.09zm-217.08 546.54c-10.117 0.007813-19.82-4.0078-26.977-11.156-7.1562-7.1523-11.176-16.852-11.18-26.969-0.003907-10.117 4.0156-19.82 11.168-26.973 7.1523-7.1523 16.855-11.172 26.973-11.168 10.117 0.003906 19.816 4.0234 26.969 11.18 7.1484 7.1562 11.164 16.859 11.156 26.977-0.007812 10.105-4.0234 19.797-11.168 26.941-7.1445 7.1445-16.836 11.16-26.941 11.168z" fill="#fff"/>
</svg>

<?xml version="1.0" encoding="UTF-8" standalone="no"?>
<!DOCTYPE svg PUBLIC "-//W3C//DTD SVG 1.1//EN" "http://www.w3.org/Graphics/SVG/1.1/DTD/svg11.dtd">
<svg width="100%" height="100%" viewBox="0 0 334 512" version="1.1" xmlns="http://www.w3.org/2000/svg" xmlns:xlink="http://www.w3.org/1999/xlink" xml:space="preserve" xmlns:serif="http://www.serif.com/" style="fill-rule:evenodd;clip-rule:evenodd;stroke-linejoin:round;stroke-miterlimit:2;">
    <g transform="matrix(1,0,0,1,-246.836,-57.1889)">
        <g transform="matrix(0.471632,0,0,0.471632,130.42,30.2168)">
            <path d="M866.41,85.664C850.004,52.172 804.183,47.062 781.379,76.547C696.887,185.837 517.499,282.567 517.499,282.567C287.619,401.397 251.459,628.687 251.459,628.687C232.029,760.637 276.842,848.437 329.881,904.287C330.889,905.342 331.897,906.42 332.928,907.474C341.674,916.474 353.518,921.806 366.053,922.38C378.588,922.955 390.873,918.732 400.405,910.568C456.03,862.595 503.265,805.678 540.135,742.148C549.51,725.906 570.604,719.601 586.565,729.351C593.889,733.777 599.213,740.867 601.428,749.132C603.643,757.398 602.576,766.198 598.447,773.694C586.119,796.1 566.267,830.741 542.08,868.171C542.08,868.171 455.549,987.961 384.35,1066.19C366.842,1085.43 367.803,1115.74 387.796,1132.36C396.425,1139.53 407.417,1143.23 418.628,1142.74C429.839,1142.25 440.464,1137.59 448.429,1129.68C486.253,1092.16 521.859,1052.47 555.069,1010.8C558.596,1006.31 563.979,1003.67 569.694,1003.63C707.464,1002.88 797.534,929.17 853.284,855.321C901.823,790.962 931.8,714.701 942.722,634.751C978.464,372.881 914.714,184.541 866.41,85.661L866.41,85.664ZM649.33,632.204C639.213,632.212 629.51,628.196 622.353,621.048C615.197,613.896 611.177,604.196 611.173,594.079C611.169,583.962 615.189,574.259 622.341,567.106C629.493,559.954 639.196,555.934 649.314,555.938C659.431,555.942 669.13,559.961 676.283,567.118C683.431,574.274 687.447,583.977 687.439,594.095C687.431,604.2 683.416,613.892 676.271,621.036C669.127,628.18 659.435,632.196 649.33,632.204Z" style="fill:white;fill-rule:nonzero;"/>
        </g>
    </g>
</svg>
